X:259
T:Navvy on the Line
Z: id:dc-reel-239
M:C
L:1/8
K:G Major
GA|B2ge dBGB|A2AB AGEF|G2ge dBGB|AGAB A2GA|!
Bdge dBGB|A2AB AGEG|gfgd edBG|AGFA G2|]!
Bd|g2BA GABd|edBA GABd|g2BA GABd|eBdB AGEG|!
g2BA GABd|edBA GABd|gfgd edBG|AGFA G2|]!

